X:1
T:the Horn
T:D.
C:Jay Ungar
L:1/8
M:4/4
I:linebreak $
K:G
V:1 treble nm="Voice" snm="Voice"
V:1
 (3DEF |:"G" G2 G2 BAGA | Bd [Dd]2 e2 d4 |"C" cdef e2 g2 | a6 ga |$"Em" b2 g2"D" a2 e2 | %6
"C" gfec BAGB |"Am" A2 c2 BA G2 |1 E4- EDEF :|2 E8 |:$ e3 e e2 d2 | B6 B2 | A3 A G2 A2 | %13
 B2 d2 d4 |$"C" g3 a g2 e2 |"G" dedc BAGB |"D" A2 d2 BA G2 |1 E4- EGBd :|2 E4 |] %19
